X:1
T: Peace and Plenty (aka Old Oxford)
N:
C:J. Playford
S:
A:
O:
R:
M:4/4
K:Em
I:speed 200
%W: A
% voice 1 (1 lines, 34 notes)
K:Em
M:4/4
L:1/16
B4 ^c2 ^d2 e4 G4 |A4 B4 E8 |E4 G2 A2 B4 e4 |^d4 e4 f8 |g4 g2 a2 b4 a2 g2 |a2 g2 f2 e2 ^d8 |e4 E4 G4 A2 G2 |F8 E8 |
%W:
% voice 1 (1 lines, 34 notes)
B4 ^c2 ^d2 e4 G4 |A4 B4 E8 |E4 G2 A2 B4 e4 |^d4 e4 f8 |g4 g2 a2 b4 a2 g2 |a2 g2 f2 e2 ^d8 |e4 E4 G4 A2 G2 |F8 E8 |
%W: B
% voice 1 (1 lines, 34 notes)
G4 d4 G4 d4 |G4 d4 B4 A2 B2 |G4 d4 B4 e4 |^d4 e4 f8 |g4 g2 a2 b4 a2 g2 |a2 g2 f2 e2 ^d8 |e4 E4 G4 A2 G2 |F8 E8 |
%W:
% voice 1 (1 lines, 34 notes)
G4 d4 G4 d4 |G4 d4 B4 A2 B2 |G4 d4 B4 e4 |^d4 e4 f8 |g4 g2 a2 b4 a2 g2 |a2 g2 f2 e2 ^d8 |e4 E4 G4 A2 G2 |F8 E8 ||
